outputs/icons/content/email_outline_round.svg

<svg xmlns="http://www.w3.org/2000/svg" width="1200" height="1200" fill="none"><g clip-path="url(#a)"><path fill="#000" d="M1000 200H200c-55 0-99.5 45-99.5 100l-.5 600c0 55 45 100 100 100h800c55 0 100-45 100-100V300c0-55-45-100-100-100m-50 700H250c-27.5 0-50-22.5-50-50V400l347 217c32.5 20.5 73.5 20.5 106 0l347-217v450c0 27.5-22.5 50-50 50M600 550 200 300h800z"/></g><defs><clipPath id="a"><path fill="#fff" d="M0 0h1200v1200H0z"/></clipPath></defs></svg>

<svg width="1200" height="1200" viewBox="0 0 1200 1200" fill="none" xmlns="http://www.w3.org/2000/svg"><g clip-path="url(#clip0_225_2415)"><path d="M1000 200H200C145 200 100.5 245 100.5 300L100 900C100 955 145 1000 200 1000H1000C1055 1000 1100 955 1100 900V300C1100 245 1055 200 1000 200ZM950 900H250C222.5 900 200 877.5 200 850V400L547 617C579.5 637.5 620.5 637.5 653 617L1000 400V850C1000 877.5 977.5 900 950 900ZM600 550L200 300H1000L600 550Z" fill="black"/></g><defs><clipPath id="clip0_225_2415"><path width="24" fill="white" d="M0 0H1200V1200H0V0z"/></clipPath></defs></svg>
